src/module-calendar.svg

<?xml version="1.0" encoding="UTF-8" standalone="no"?>
<svg
   xmlns:dc="http://purl.org/dc/elements/1.1/"
   xmlns:cc="http://creativecommons.org/ns#"
   xmlns:rdf="http://www.w3.org/1999/02/22-rdf-syntax-ns#"
   xmlns:svg="http://www.w3.org/2000/svg"
   xmlns="http://www.w3.org/2000/svg"
   xmlns:sodipodi="http://sodipodi.sourceforge.net/DTD/sodipodi-0.dtd"
   xmlns:inkscape="http://www.inkscape.org/namespaces/inkscape"
   width="1024"
   height="1024"
   viewBox="0 0 1024 1024"
   version="1.1"
   id="svg2"
   inkscape:version="0.91 r13725"
   sodipodi:docname="module-calendar.svg">
  <metadata
     id="metadata16">
    <rdf:RDF>
      <cc:Work
         rdf:about="">
        <dc:format>image/svg+xml</dc:format>
        <dc:type
           rdf:resource="http://purl.org/dc/dcmitype/StillImage" />
        <dc:title>acc_calendar</dc:title>
      </cc:Work>
    </rdf:RDF>
  </metadata>
  <sodipodi:namedview
     pagecolor="#ffffff"
     bordercolor="#666666"
     borderopacity="1"
     objecttolerance="10"
     gridtolerance="10"
     guidetolerance="10"
     inkscape:pageopacity="0"
     inkscape:pageshadow="2"
     inkscape:window-width="1920"
     inkscape:window-height="1015"
     id="namedview14"
     showgrid="false"
     inkscape:zoom="0.24583333"
     inkscape:cx="-1665.9393"
     inkscape:cy="-214.12473"
     inkscape:window-x="0"
     inkscape:window-y="0"
     inkscape:window-maximized="1"
     inkscape:current-layer="svg2" />
  <!-- Generator: Sketch 39.1 (31720) - http://www.bohemiancoding.com/sketch -->
  <title
     id="title4">acc_calendar</title>
  <desc
     id="desc6">Created with Sketch.</desc>
  <defs
     id="defs8" />
  <path
     style="fill:#000000;fill-rule:evenodd;stroke:none;stroke-width:1;fill-opacity:1"
     d="m 743.13478,12.294895 -69.51765,0 0,123.385235 -323.46785,0 0,-123.385235 -69.51762,0 0,123.385235 -264.74845,0 0,876.61477 991.99999,0 0,-876.61477 -264.74842,0 0,-123.385235 z M 85.400841,942.88173 l 0,-489.83632 852.964719,0 0,489.83632 -852.964719,0 z M 938.36556,205.0933 l 0,177.27746 -852.964719,0 0,-177.27746 195.294709,0 0,83.83233 69.51764,0 0,-83.83233 322.28577,0 0,83.83233 69.50165,0 0,-83.83233 196.36495,0 z"
     id="path12"
     inkscape:connector-curvature="0" />
</svg>

<?xml version="1.0" encoding="UTF-8"?>
<svg xmlns="http://www.w3.org/2000/svg" xmlns:xlink="http://www.w3.org/1999/xlink" width="1024pt" height="1024pt" viewBox="0 0 1024 1024" version="1.1">
<g id="surface1">
<path style=" stroke:none;fill-rule:evenodd;fill:rgb(0%,0%,0%);fill-opacity:1;" d="M 743.136719 12.292969 L 673.617188 12.292969 L 673.617188 135.679688 L 350.148438 135.679688 L 350.148438 12.292969 L 280.632812 12.292969 L 280.632812 135.679688 L 15.882812 135.679688 L 15.882812 1012.292969 L 1007.882812 1012.292969 L 1007.882812 135.679688 L 743.136719 135.679688 Z M 85.402344 942.882812 L 85.402344 453.046875 L 938.367188 453.046875 L 938.367188 942.882812 Z M 938.367188 205.09375 L 938.367188 382.371094 L 85.402344 382.371094 L 85.402344 205.09375 L 280.695312 205.09375 L 280.695312 288.925781 L 350.214844 288.925781 L 350.214844 205.09375 L 672.5 205.09375 L 672.5 288.925781 L 742 288.925781 L 742 205.09375 Z M 938.367188 205.09375 "/>
</g>
</svg>
